X: 1
T:Mucking o' Geordie's byre, The
R:Jig
O:Scotland
M:6/8
L:1/8
K:D
|:dcB|ABA AFA|d2e f2a|g2e f2d|e2d Bcd|!
ABA AFA|d2e f2g|afd efe|d3:|!
|:def|g>ag gag|f>af faf|e2e efg|fed BdB|!
ABA AFA|d2e f2g|afd efe|d3:|!
